static/images/pieces/shogi/cz/1NY.svg

<svg height="31.358999mm" viewBox="0 0 27.116999 31.358999" width="27.116999mm" xmlns="http://www.w3.org/2000/svg" xmlns:xlink="http://www.w3.org/1999/xlink"><linearGradient id="a" gradientTransform="matrix(-1 0 0 -1 -169.207356 73.969406)" gradientUnits="userSpaceOnUse" x1="-121.22739" x2="-121.22739" y1="132.82683" y2="66.778358"><stop offset="0" stop-color="#ffdba6"/><stop offset="1" stop-color="#f2c478"/></linearGradient><clipPath id="b"><path d="m0 2834.646h2834.646v-2834.646h-2834.646z" transform="translate(-174.6885 -1471.5031)"/></clipPath><g clip-path="url(#b)" stroke-miterlimit="10" transform="matrix(-.35277776 0 0 .35277776 6.933632 24.793291)"><path d="m0 0-18.208 6.244c-.37.127-.78.127-1.15 0l-18.208-6.244c-.538-.184-.92-.612-.998-1.116l-8.551-55.301c-.13-.841.611-1.59 1.573-1.59h26.759 26.759c.962 0 1.703.749 1.573 1.59l-8.551 55.301c-.078.504-.46.932-.998 1.116" fill="url(#a)"/><path d="m-45.542969-58.857422c-1.403402 0-2.628281 1.171847-2.412109 2.570313l8.550781 55.30078087c.131052.8467983.759066 1.5162352 1.5625 1.79101563l18.207031 6.2441406c.552456.1896266 1.15067.1896266 1.703125 0l18.20703163-6.2441406c.80343407-.27478043 1.43144787-.94421733 1.56249997-1.79101563l8.5507814-55.30078087c.216172-1.398466-1.008707-2.570313-2.4121095-2.570313h-26.7597655zm0 1.701172h26.759766 26.7597655c.5205955 0 .7762497.325843.7324219.609375l-8.55078128 55.3007813c-.0249477.1612006-.1610289.348187-.43359375.4414062l-18.20898437 6.2441406c-.187544.064373-.410112.064373-.597656 0l-18.208985-6.2441406c-.272564-.0932192-.406693-.2802056-.43164-.4414062l-8.552735-55.3007813c-.04383-.283532.211827-.609375.732422-.609375z" fill="#4d3608"/></g><g fill="#f00"><path d="m14.023122 20.113586h2.116668v.727604h-4.927867v-.727604h2.017449v-2.381251h-3.141928v-.727605h6.978388v.727605h-3.04271zm-.132292 4.365626-.79375-.330729.132292-.198438q-.694532-.859896-1.587501-1.521355-.826823-.661458-1.9513026-1.25677.231511-.198438.5622396-.661459 1.091407.661459 2.017449 1.422136.826823.694531 1.422136 1.455208.727604-.892969.992188-1.157552.496094-.496094 1.157552-1.025261.396876-.363802 1.091407-.760677.132292.264583.529167.661459-.760677.46302-1.091407.694531-.760677.56224-1.389063 1.289844-.463021.56224-1.091407 1.389063z" stroke-width=".352777"/><path d="m13.785167 6.6797047v8.0002003h-.450619v-8.0002003z" stroke-miterlimit="10" stroke-width=".352778"/><path d="m17.560053 10.454392v.450619h-8.0002006v-.450619z" stroke-miterlimit="10" stroke-width=".352778"/><path d="m13.719021 10.520538 2.828423 2.828423-.318327.318327-2.828423-2.828423z" stroke-miterlimit="10" stroke-width=".352778"/><path d="m13.400686 10.520564.318327.318327-2.828423 2.828423-.318327-.318327z" stroke-miterlimit="10" stroke-width=".352778"/></g></svg>

<?xml version="1.0" encoding="UTF-8" standalone="no"?>
<!-- Created with Inkscape (http://www.inkscape.org/) -->

<svg
   width="27.116999mm"
   height="31.358999mm"
   viewBox="0 0 27.116999 31.358999"
   version="1.1"
   id="svg1"
   inkscape:version="1.3.1 (91b66b0783, 2023-11-16)"
   sodipodi:docname="Template.svg"
   inkscape:export-filename="My Sets\FCZ Shogi\0NY.svg"
   inkscape:export-xdpi="96"
   inkscape:export-ydpi="96"
   xmlns:inkscape="http://www.inkscape.org/namespaces/inkscape"
   xmlns:sodipodi="http://sodipodi.sourceforge.net/DTD/sodipodi-0.dtd"
   xmlns:xlink="http://www.w3.org/1999/xlink"
   xmlns="http://www.w3.org/2000/svg"
   xmlns:svg="http://www.w3.org/2000/svg">
  <sodipodi:namedview
     id="namedview1"
     pagecolor="#ffffff"
     bordercolor="#999999"
     borderopacity="1"
     inkscape:showpageshadow="2"
     inkscape:pageopacity="0"
     inkscape:pagecheckerboard="0"
     inkscape:deskcolor="#d1d1d1"
     inkscape:document-units="mm"
     inkscape:zoom="2.0737236"
     inkscape:cx="31.103471"
     inkscape:cy="78.361457"
     inkscape:window-width="1920"
     inkscape:window-height="1009"
     inkscape:window-x="-8"
     inkscape:window-y="-8"
     inkscape:window-maximized="1"
     inkscape:current-layer="layer1" />
  <defs
     id="defs1">
    <linearGradient
       inkscape:collect="always"
       xlink:href="#linearGradient22"
       id="linearGradient2"
       x1="-121.22739"
       y1="132.82683"
       x2="-121.22739"
       y2="66.778358"
       gradientUnits="userSpaceOnUse"
       gradientTransform="rotate(180,-84.603678,36.984703)" />
    <linearGradient
       id="linearGradient22"
       inkscape:collect="always">
      <stop
         style="stop-color:#ffdba6;stop-opacity:1;"
         offset="0"
         id="stop21" />
      <stop
         style="stop-color:#f2c478;stop-opacity:1;"
         offset="1"
         id="stop22" />
    </linearGradient>
    <clipPath
       clipPathUnits="userSpaceOnUse"
       id="clipPath1352">
      <path
         d="M 0,2834.646 H 2834.646 V 0 H 0 Z"
         transform="translate(-174.6885,-1471.5031)"
         id="path1352" />
    </clipPath>
  </defs>
  <g
     inkscape:label="Layer 1"
     inkscape:groupmode="layer"
     id="layer1">
    <g
       id="path1351"
       clip-path="url(#clipPath1352)"
       transform="matrix(-0.35277776,0,0,0.35277776,6.9336324,24.793291)">
      <path
         style="color:#000000;fill:url(#linearGradient2);stroke-miterlimit:10;-inkscape-stroke:none"
         d="m 0,0 -18.208,6.244 c -0.37,0.127 -0.78,0.127 -1.15,0 L -37.566,0 c -0.538,-0.184 -0.92,-0.612 -0.998,-1.116 l -8.551,-55.301 c -0.13,-0.841 0.611,-1.59 1.573,-1.59 h 26.759 26.759 c 0.962,0 1.703,0.749 1.573,1.59 L 0.998,-1.116 C 0.92,-0.612 0.538,-0.184 0,0"
         id="path5" />
      <path
         style="color:#000000;fill:#4d3608;stroke-miterlimit:10;-inkscape-stroke:none"
         d="m -45.542969,-58.857422 c -1.403402,0 -2.628281,1.171847 -2.412109,2.570313 l 8.550781,55.30078087 c 0.131052,0.8467983 0.759066,1.5162352 1.5625,1.79101563 l 18.207031,6.2441406 c 0.552456,0.1896266 1.15067,0.1896266 1.703125,0 L 0.27539063,0.8046875 C 1.0788247,0.52990707 1.7068385,-0.13952983 1.8378906,-0.98632813 L 10.388672,-56.287109 c 0.216172,-1.398466 -1.008707,-2.570313 -2.4121095,-2.570313 H -18.783203 Z m 0,1.701172 h 26.759766 26.7597655 c 0.5205955,0 0.7762497,0.325843 0.7324219,0.609375 L 0.15820312,-1.2460937 c -0.0249477,0.1612006 -0.1610289,0.348187 -0.43359375,0.4414062 L -18.484375,5.4394531 c -0.187544,0.064373 -0.410112,0.064373 -0.597656,0 l -18.208985,-6.2441406 c -0.272564,-0.0932192 -0.406693,-0.2802056 -0.43164,-0.4414062 l -8.552735,-55.3007813 c -0.04383,-0.283532 0.211827,-0.609375 0.732422,-0.609375 z"
         id="path6" />
    </g>
    <path
       style="fill:#ff0000;stroke-width:0.352777"
       d="m 14.023122,20.113586 h 2.116668 v 0.727604 h -4.927867 v -0.727604 h 2.017449 V 17.732335 H 10.087444 V 17.00473 h 6.978388 v 0.727605 h -3.04271 z m -0.132292,4.365626 -0.79375,-0.330729 0.132292,-0.198438 Q 12.53484,23.090149 11.641871,22.42869 10.815048,21.767232 9.6905684,21.17192 q 0.231511,-0.198438 0.5622396,-0.661459 1.091407,0.661459 2.017449,1.422136 0.826823,0.694531 1.422136,1.455208 0.727604,-0.892969 0.992188,-1.157552 0.496094,-0.496094 1.157552,-1.025261 0.396876,-0.363802 1.091407,-0.760677 0.132292,0.264583 0.529167,0.661459 -0.760677,0.46302 -1.091407,0.694531 -0.760677,0.56224 -1.389063,1.289844 -0.463021,0.56224 -1.091407,1.389063 z"
       id="text1352"
       aria-label="仝" />
    <path
       style="color:#000000;fill:#ff0000;stroke-width:0.352778;stroke-miterlimit:10;-inkscape-stroke:none"
       d="M 13.785167,6.6797047 V 14.679905 H 13.334548 V 6.6797047 Z"
       id="path1443" />
    <path
       style="color:#000000;fill:#ff0000;stroke-width:0.352778;stroke-miterlimit:10;-inkscape-stroke:none"
       d="m 17.560053,10.454392 v 0.450619 H 9.5598524 v -0.450619 z"
       id="path1445" />
    <path
       style="color:#000000;fill:#ff0000;stroke-width:0.352778;stroke-miterlimit:10;-inkscape-stroke:none"
       d="m 13.719021,10.520538 2.828423,2.828423 -0.318327,0.318327 -2.828423,-2.828423 z"
       id="path1447" />
    <path
       style="color:#000000;fill:#ff0000;stroke-width:0.352778;stroke-miterlimit:10;-inkscape-stroke:none"
       d="m 13.400686,10.520564 0.318327,0.318327 -2.828423,2.828423 -0.318327,-0.318327 z"
       id="path1449" />
  </g>
</svg>
